X:33
T:Elphinstone Waltz
M:3/4
L:1/8
C:Camp Chehalis tune writing class 2001 
R:Waltz
K:Em
"A"|:"Em"G4 E2|B4 G2|B6-|B6|"Am"c4 B2|A4 G2|"B7"F2G2A2|^D6|!
"B7"^D4 B,2|F4 ^D2|B6|B2 c2 d2|"(Am)"c4 B2|A2 G3 A|"Em"B6-|"B"B6:|! 
|:"Am"ed cd e2-|e6|"Em"BA GA B2-|B2 A2 G2|"B7"F4 c2|B4 F2|"Em"G4A2|"(E7)"B6|!
"Am"ed cd e2-|e2 d2 c2|"Em"BA GA B2-|B2 A2 G2|!
"Am6"F4 c2|1 A2 B2 c2|"B7"B6-|B6:|2 "B7" BA G3 F|"Em"E6-|E6|]
